X: 1
T: the Laird o' Drumblair
T: Angus Campbell
C: J.S.Skinner
R: strathspey, shottish
B: BSFC Session Tune Book p.23
B: BSFC Tune Book XI-24
B: Caledonian Companion, p.73.
B: Harp and Claymore, p.93.
B: The Scottish Violinist, J.S.Skinner, p 10.
N: Hunter 134; BSFC IV-20; Bain 13
D: Ron Ganella on three fiddles tape
N: Skinner also published this tune as the reel "Angus Campbell".
M: 4/4
L: 1/8
K: A
E2 \
| "A"A2 c>A E<A c>e | {A}a2 g>a f>a e>c \
| "D"(3def "(E)"(3efg "A"(3aed (3cBA | "D"(3Bcd (3cBA "E"(3GFE (3dcB |
y3 \
| "A"A2 c>A E<A c>e | {A}a2 g>a f>a e>c \
| "D"(3def "(E)"(3efg "A"(3aed (3cBA | "E7"(3GFE (3dcB "A"A2 |]
ef/g/ \
| "A"{g}a2 e>a c>a A>a | c/B/A e>g a>A ca \
| "Bm"b2 f>b d>b B>f | d/c/B f>B "(E7)"b>B d<b |
y3 \
| "A"{g}a2 e>a c>a A>a | c/B/A e>g a>A c>A \
| "D"(3def "(E)"(3efg "A"(3aed (3cBA | "E7"(3GFE (3dcB "A"A2 |]
